!!! OTL: Literature77
!!! Chapter: 5
!!! Section: II
!!! Page: 362
!!! Mode: 
!!! Encoder: ESM
**kern
*staff1
*I"Piano
=1-
*clefG2
*k[b-]
*F:
*M3/4
4cc\
8a/L
8b-/J
8cc/L
8a/J
=2
2f/
8c/L
8f/J
=3
8f/L
8e/J
8e/L
8f/J
8g/L
8a/J
=4
4b-\
4r
4r
=5
4b-\
8g/L
8a/J
8b-/L
8bn/J
=6
2cc\
4b-\
=7
8a\L
8cc\J
4f/
4g/
=8
2g/
4a/
=9
4b-\
8g/L
8a/J
8b-/L
8bn/J
=10
2cc\
4b-\
=11
!!linebreak:original
16a\LL
16cc\JJ
8r
8f/
8r
16a/LL
16g/JJ
8r
=12
2.f/
==
*-
